raw-svg/bullseye.svg

<svg fill="none" height="24" viewBox="0 0 24 24" width="24" xmlns="http://www.w3.org/2000/svg"><path clip-rule="evenodd" d="m12.0004 4.5c-4.14236 0-7.5004 3.35804-7.5004 7.5004 0 4.1424 3.35804 7.5004 7.5004 7.5004 4.1424 0 7.5004-3.358 7.5004-7.5004 0-4.14236-3.358-7.5004-7.5004-7.5004zm-9.0004 7.5004c0-4.97078 4.02962-9.0004 9.0004-9.0004 4.9708 0 9.0004 4.02962 9.0004 9.0004 0 4.9708-4.0296 9.0004-9.0004 9.0004-4.97078 0-9.0004-4.0296-9.0004-9.0004zm9-4.3754c-2.41625 0-4.375 1.95875-4.375 4.375 0 2.4162 1.95875 4.375 4.375 4.375 2.4162 0 4.375-1.9588 4.375-4.375 0-2.41625-1.9588-4.375-4.375-4.375zm-5.875 4.375c0-3.24467 2.63033-5.875 5.875-5.875 3.2447 0 5.875 2.63033 5.875 5.875 0 3.2447-2.6303 5.875-5.875 5.875-3.24467 0-5.875-2.6303-5.875-5.875zm4.625 0c0-.6904.5596-1.25 1.25-1.25s1.25.5596 1.25 1.25-.5596 1.25-1.25 1.25-1.25-.5596-1.25-1.25zm1.25-2.75c-1.5188 0-2.75 1.2312-2.75 2.75s1.2312 2.75 2.75 2.75 2.75-1.2312 2.75-2.75-1.2312-2.75-2.75-2.75z" fill="#000" fill-rule="evenodd"/></svg>

<svg width="24" height="24" viewBox="0 0 24 24" fill="none" xmlns="http://www.w3.org/2000/svg">
<path fill-rule="evenodd" clip-rule="evenodd" d="M12.0004 4.5C7.85804 4.5 4.5 7.85804 4.5 12.0004C4.5 16.1428 7.85804 19.5008 12.0004 19.5008C16.1428 19.5008 19.5008 16.1428 19.5008 12.0004C19.5008 7.85804 16.1428 4.5 12.0004 4.5ZM3 12.0004C3 7.02962 7.02962 3 12.0004 3C16.9712 3 21.0008 7.02962 21.0008 12.0004C21.0008 16.9712 16.9712 21.0008 12.0004 21.0008C7.02962 21.0008 3 16.9712 3 12.0004ZM12 7.625C9.58375 7.625 7.625 9.58375 7.625 12C7.625 14.4162 9.58375 16.375 12 16.375C14.4162 16.375 16.375 14.4162 16.375 12C16.375 9.58375 14.4162 7.625 12 7.625ZM6.125 12C6.125 8.75533 8.75533 6.125 12 6.125C15.2447 6.125 17.875 8.75533 17.875 12C17.875 15.2447 15.2447 17.875 12 17.875C8.75533 17.875 6.125 15.2447 6.125 12ZM10.75 12C10.75 11.3096 11.3096 10.75 12 10.75C12.6904 10.75 13.25 11.3096 13.25 12C13.25 12.6904 12.6904 13.25 12 13.25C11.3096 13.25 10.75 12.6904 10.75 12ZM12 9.25C10.4812 9.25 9.25 10.4812 9.25 12C9.25 13.5188 10.4812 14.75 12 14.75C13.5188 14.75 14.75 13.5188 14.75 12C14.75 10.4812 13.5188 9.25 12 9.25Z" fill="black"/>
</svg>
